static/assets/images/icons/github.svg

<svg width="256" height="256" viewBox="0 0 256 256" fill="none" xmlns="http://www.w3.org/2000/svg">
<path d="M103.234 162.453C103.234 172.358 98.125 188.567 86.0312 188.567C73.9375 188.567 68.8281 172.358 68.8281 162.453C68.8281 152.548 73.9375 136.339 86.0312 136.339C98.125 136.339 103.234 152.548 103.234 162.453ZM241 138.519C241 153.638 239.5 169.657 232.797 183.544C215.031 219.848 166.188 218.995 131.219 218.995C95.6875 218.995 43.9375 220.274 25.4688 183.544C18.625 169.799 16 153.638 16 138.519C16 118.661 22.5156 99.8924 35.4531 84.6788C33.0156 77.1905 31.8438 69.323 31.8438 61.5503C31.8438 51.3605 34.1406 46.2419 38.6875 37C59.9219 37 73.5156 41.2655 89.6875 54.062C103.281 50.7918 117.25 49.3225 131.266 49.3225C143.922 49.3225 156.672 50.697 168.953 53.6828C184.891 41.0285 198.484 37 219.484 37C224.078 46.2419 226.328 51.3605 226.328 61.5503C226.328 69.323 225.109 77.0483 222.719 84.3944C235.609 99.7502 241 118.661 241 138.519ZM210.859 162.453C210.859 141.647 198.344 123.305 176.406 123.305C167.547 123.305 159.062 124.917 150.156 126.149C143.172 127.239 136.188 127.666 129.016 127.666C121.891 127.666 114.906 127.239 107.875 126.149C99.1094 124.917 90.5312 123.305 81.625 123.305C59.6875 123.305 47.1719 141.647 47.1719 162.453C47.1719 204.065 84.8594 210.464 117.672 210.464H140.266C173.219 210.464 210.859 204.113 210.859 162.453ZM172.141 136.339C160.047 136.339 154.938 152.548 154.938 162.453C154.938 172.358 160.047 188.567 172.141 188.567C184.234 188.567 189.344 172.358 189.344 162.453C189.344 152.548 184.234 136.339 172.141 136.339Z" fill="black"/>
</svg>

<svg xmlns="http://www.w3.org/2000/svg" fill="none" viewBox="0 0 256 256"><path fill="#000" d="M103.234 162.453c0 9.905-5.109 26.114-17.203 26.114s-17.203-16.209-17.203-26.114 5.11-26.114 17.203-26.114 17.203 16.209 17.203 26.114M241 138.519c0 15.119-1.5 31.138-8.203 45.025-17.766 36.304-66.609 35.451-101.578 35.451-35.531 0-87.281 1.279-105.75-35.451C18.625 169.799 16 153.638 16 138.519c0-19.858 6.516-38.627 19.453-53.84-2.437-7.489-3.61-15.356-3.61-23.129 0-10.19 2.298-15.308 6.845-24.55 21.234 0 34.828 4.266 51 17.062 13.593-3.27 27.562-4.74 41.578-4.74 12.656 0 25.406 1.375 37.687 4.36C184.891 41.029 198.484 37 219.484 37c4.594 9.242 6.844 14.36 6.844 24.55a73.9 73.9 0 0 1-3.609 22.844C235.609 99.75 241 118.661 241 138.52m-30.141 23.934c0-20.806-12.515-39.148-34.453-39.148-8.859 0-17.344 1.612-26.25 2.844-6.984 1.09-13.968 1.517-21.14 1.517-7.125 0-14.11-.427-21.141-1.517-8.766-1.232-17.344-2.844-26.25-2.844-21.937 0-34.453 18.342-34.453 39.148 0 41.612 37.687 48.011 70.5 48.011h22.594c32.953 0 70.593-6.351 70.593-48.011m-38.718-26.114c-12.094 0-17.203 16.209-17.203 26.114s5.109 26.114 17.203 26.114 17.203-16.209 17.203-26.114-5.11-26.114-17.203-26.114"/></svg>
